!!!!SEGMENT: pl-cz--iii-349--007_koperski-maksymilian--msza-b-pleni.krn
!!!cenid: 18xx:893
!!!COM: Koperski, Maksymilian
!!!COM-rismID: pe30060120
!!!CDT: 1812-1886
!!!CNT:
!!!OPR: Msza B
!!!OTL: Pleni
!!!OMV: 007
!!!PDT: 1834
!!!AGN: Sacred; Mass
!!!SMS-siglum: PL-CZ
!!!SMS-shelfmark: III-349
!!!SMS-shelfwork: 001-007 M
!!!SMS-variant:
!!!SMS-altvar:
!!!NIFC-rismSourceID: 300000599
!!!NIFC-rismChildID: 300000599
!!!NIFC-islandoraID: pl-cz:37819
!!!URL-pdf-islandora: https://repozytorium.nifc.pl/islandora/object/pl-cz%3A37819/datastream/PDF/view
!!!URL-scan: https://polish.musicsources.pl/pl/lokalizacje/galeria/rekopisy/6910/1 @EN{Scan on Polish Music Sources Website} @PL{Skany w portalu Dziedzictwo Muzyki Polskiej w otwartym dostępie}
!!!ONB-nifc: UWAGA: części Mszy: Kyrie, Gloria, Credo, Et incarnatus, Et resurrexit, Sanctus, Pleni, Benedictus, Agnus Dei
!!!AIN: 1 alto 1 bass 2 clars 2 clrno 1 fagot 1 flt 1 organ 1 soprn 1 tenor 1 timpa 1 viola 2 violn
!!!key: B-
**kern	**fba	**dynam	**kern	**dynam	**kern	**dynam	**kern	**dynam	**kern	**text	**dynam	**kern	**text	**dynam	**kern	**text	**dynam	**kern	**text	**dynam	**kern	**dynam	**kern	**dynam	**kern	**dynam	**kern	**dynam	**kern	**dynam	**kern	**dynam	**kern	**dynam
*part15	*part15	*part15	*part14	*part14	*part13	*part13	*part12	*part12	*part11	*part11	*part11	*part10	*part10	*part10	*part9	*part9	*part9	*part8	*part8	*part8	*part7	*part7	*part6	*part6	*part5	*part5	*part4	*part4	*part3	*part3	*part2	*part2	*part1	*part1
*staff15	*	*	*staff14	*	*staff13	*	*staff12	*	*staff11	*staff11	*	*staff10	*staff10	*	*staff9	*staff9	*	*staff8	*staff8	*	*staff7	*	*staff6	*	*staff5	*	*staff4	*	*staff3	*	*staff2	*	*staff1	*
*I"Organo	*	*	*I"Alto Viola	*	*I"Violino 2do	*	*I"Violino 1mo	*	*I"Basso	*	*	*I"Tenore	*	*	*I"Alto	*	*	*I"Canto	*	*	*I"Tympano in B C.G.	*	*I"Clarino 2do in B♭	*	*I"Clarino 1mo in B♭	*	*I"Fagotto 1mo	*	*I"Clarinetto 2do in B♭	*	*I"Clarinetto 1mo in B♭	*	*I"Flauto	*
*I'org	*	*	*I'a-vla	*	*I'vl II	*	*I'vl I	*	*I'B	*	*	*I'T	*	*	*I'A	*	*	*I'S	*	*	*I'timp	*	*I'clno II	*	*I'clno I	*	*I'fag	*	*I'cl II	*	*I'cl I	*	*I'fl	*
*ICklav	*	*	*ICstr	*	*ICstr	*	*ICstr	*	*ICvox	*	*	*ICvox	*	*	*ICvox	*	*	*ICvox	*	*	*ICidio	*	*ICbras	*	*ICbras	*	*ICww	*	*ICww	*	*ICww	*	*ICww	*
*Iorgan	*	*	*Iviola	*	*Ivioln	*	*Ivioln	*	*Ibass	*	*	*Itenor	*	*	*Ialto	*	*	*Isoprn	*	*	*Itimpa	*	*Iclrno	*	*Iclrno	*	*Ifagot	*	*Iclars	*	*Iclars	*	*Iflt	*
*clefF4	*	*	*clefC3	*	*clefG2	*	*clefG2	*	*clefF4	*	*	*clefC4	*	*	*clefC3	*	*	*clefC1	*	*	*clefF4	*	*clefG2	*	*clefG2	*	*clefF4	*	*clefG2	*	*clefG2	*	*clefG2	*
*B-:	*	*	*B-:	*	*B-:	*	*B-:	*	*B-:	*	*	*B-:	*	*	*B-:	*	*	*B-:	*	*	*B-:	*	*B-:	*	*B-:	*	*B-:	*	*B-:	*	*B-:	*	*B-:	*
*	*	*	*	*	*	*	*	*	*	*	*	*	*	*	*	*	*	*	*	*	*ITrd1c2	*	*ITrd1c2	*	*ITrd1c2	*	*	*	*ITrd1c2	*	*ITrd1c2	*	*	*
*k[b-e-]	*	*	*k[b-e-]	*	*k[b-e-]	*	*k[b-e-]	*	*k[b-e-]	*	*	*k[b-e-]	*	*	*k[b-e-]	*	*	*k[b-e-]	*	*	*k[b-e-]	*	*k[b-e-]	*	*k[b-e-]	*	*k[b-e-]	*	*k[b-e-]	*	*k[b-e-]	*	*k[b-e-]	*
*M4/4	*	*	*M4/4	*	*M4/4	*	*M4/4	*	*M4/4	*	*	*M4/4	*	*	*M4/4	*	*	*M4/4	*	*	*M4/4	*	*M4/4	*	*M4/4	*	*M4/4	*	*M4/4	*	*M4/4	*	*M4/4	*
*met(c)	*	*	*met(c)	*	*met(c)	*	*met(c)	*	*met(c)	*	*	*met(c)	*	*	*met(c)	*	*	*met(c)	*	*	*met(c)	*	*met(c)	*	*met(c)	*	*met(c)	*	*met(c)	*	*met(c)	*	*met(c)	*
=1	=1	=1	=1	=1	=1	=1	=1	=1	=1	=1	=1	=1	=1	=1	=1	=1	=1	=1	=1	=1	=1	=1	=1	=1	=1	=1	=1	=1	=1	=1	=1	=1	=1	=1
!!LO:TX:t=P:problem: all\right	!	!	!	!	!	!	!	!	!	!	!	!	!	!	!	!	!	!	!	!	!	!	!	!	!	!	!	!	!	!	!	!	!
!	!	!	!	!	!	!	!LO:TX:a:B:t=All(egr)o	!	!	!	!	!	!	!	!	!	!	!	!	!	!LO:TX:a:B:t=all(egr)o	!	!LO:TX:a:B:t=all(egr)o	!	!LO:TX:a:B:t=all(egr)o	!	!	!	!	!	!	!	!	!
!LO:TX:a:B:t=All(egr)o	!	!	!LO:TX:a:B:t=all(egr)o	!	!LO:TX:a:B:t=All(egr)o	!	!LO:TX:a:t=1	!	!LO:TX:a:B:t=All(egr)o	!	!	!	!	!	!LO:TX:a:B:t=All(egr)o	!	!	!LO:TX:a:B:t=All(egr)o	!	!	!LO:TX:a:t=1	!	!LO:TX:a:t=1	!	!LO:TX:a:t=1	!	!LO:TX:a:B:t=All(egr)o	!	!LO:TX:a:B:t=All(egr)o	!	!LO:TX:a:B:t=All(egr)o	!	!LO:TX:a:B:t=All(egr)o	!
!	!	!	!	!	!	!	!	!	!	!	!	!	!	!	!	!	!	!	!	!LO:DY:b:t=fo	!	!	!	!	!	!	!	!	!	!	!	!	!	!
!	!	!	!	!	!	!	!	!	!	!	!	!LO:TX:t=pleno	!	!	!	!	!	!	!	!	!	!	!	!	!	!	!	!	!	!	!	!	!	!
!	!	!	!	!	!	!	!	!	!	!	!LO:DY:b	!	!	!LO:DY:b	!	!	!	!	!	!	!	!	!	!	!	!	!	!	!	!LO:DY:b:t=for	!	!	!	!
1r	.	.	1r	.	1r	.	1r	.	2B-\	Ple-	f	2f\	Ple-	f	2b-\	Ple-	f	2dd\	Ple-	f	1r	.	1r	.	1r	.	4BB-/	f	2b-\	f	2dd\	f	2bb-^\	f
.	.	.	.	.	.	.	.	.	.	.	.	.	.	.	.	.	.	.	.	.	.	.	.	.	.	.	4B-\	.	.	.	.	.	.	.
.	.	.	.	.	.	.	.	.	4B-\	-ni	.	4f\	-ni	.	4b-\	-ni	.	4dd\	-ni	.	.	.	.	.	.	.	4F\	.	4b-\	.	4dd\	.	4bb-\	.
.	.	.	.	.	.	.	.	.	4B-\	sunt	.	4f\	sunt	.	4b-\	sun(t)	.	4dd\	sunt	.	.	.	.	.	.	.	4D\	.	4b-\	.	4dd\	.	4bb-\	.
=2	=2	=2	=2	=2	=2	=2	=2	=2	=2	=2	=2	=2	=2	=2	=2	=2	=2	=2	=2	=2	=2	=2	=2	=2	=2	=2	=2	=2	=2	=2	=2	=2	=2	=2
!	!	!	!	!LO:DY:t=fo	!	!	!	!	!	!	!	!	!	!	!	!	!	!	!	!	!	!	!	!	!	!	!	!	!	!	!	!	!	!
!	!	!	!	!	!	!	!	!	!	!	!	!	!	!	!	!	!	!	!	!	!	!	!	!	!	!LO:DY:b:t=for	!	!	!	!	!	!	!	!
8BB-'/L	.	f	8B-'/L	f	16B-/LL	f	16B-/LL	.	4B-\	cae-	.	4f\	cae-	.	4b-\	cae-	.	4dd\	cae-	.	8BB-/L	f	8d/L	f	8b-\L	f	4BB-/	.	4b-\	.	4dd\	.	4bb-\	.
.	.	.	.	.	16B-/	.	16B-/	.	.	.	.	.	.	.	.	.	.	.	.	.	.	.	.	.	.	.	.	.	.	.	.	.	.	.
8AA'/	.	.	8d'/	.	16A/	.	16A/	.	.	.	.	.	.	.	.	.	.	.	.	.	16BB-/L	.	16d/L	.	16b-\L	.	.	.	.	.	.	.	.	.
.	.	.	.	.	16A/JJ	.	16A/JJ	.	.	.	.	.	.	.	.	.	.	.	.	.	16BB-/JJ	.	16d/JJ	.	16b-\JJ	.	.	.	.	.	.	.	.	.
*	*	*	*	*	*rep	*	*rep	*	*	*	*	*	*	*	*	*	*	*	*	*	*	*	*	*	*	*	*	*	*	*	*	*	*	*
8BB-'/	.	.	8c'/	.	16B-/LL	.	16B-/LL	.	4B-\	-li	.	4f\	-li	.	4b-\	-li	.	4dd\	-li	.	8BB-/L	.	8d/L	.	8b-\L	.	4B-\	.	4b-\	.	4dd\	.	4bb-\	.
.	.	.	.	.	16B-/	.	16B-/	.	.	.	.	.	.	.	.	.	.	.	.	.	.	.	.	.	.	.	.	.	.	.	.	.	.	.
8AA'/J	.	.	8B-'/J	.	16A/	.	16A/	.	.	.	.	.	.	.	.	.	.	.	.	.	8BB-/J	.	8d/J	.	8b-\J	.	.	.	.	.	.	.	.	.
.	.	.	.	.	16A/JJ	.	16A/JJ	.	.	.	.	.	.	.	.	.	.	.	.	.	.	.	.	.	.	.	.	.	.	.	.	.	.	.
*	*	*	*	*	*	*	*	*	*	*	*	*	*	*	*	*	*	*	*	*	*tremolo	*	*	*	*	*	*	*	*	*	*	*	*	*
*	*	*	*	*	*	*	*	*	*	*	*	*	*	*	*	*	*	*	*	*	*	*	*tremolo	*	*	*	*	*	*	*	*	*	*	*
*	*	*	*	*	*	*	*	*	*	*	*	*	*	*	*	*	*	*	*	*	*	*	*	*	*tremolo	*	*	*	*	*	*	*	*	*
*	*	*	*	*	*Xrep	*	*Xrep	*	*	*	*	*	*	*	*	*	*	*	*	*	*	*	*	*	*	*	*	*	*	*	*	*	*	*
!	!	!	!	!	!	!	!	!	!	!	!	!	!	!	!	!	!	!	!	!	!	!	!LO:TX:t=P:problem=poczwórne staccato	!	!	!	!	!	!	!	!	!	!	!
8BB-'/L	.	.	8A'/L	.	16B-/LL	.	16B-/LL	.	2r	.	.	2r	.	.	2r	.	.	2r	.	.	8BB-/L	.	8d'/L	.	8b-\L	.	2r	.	2r	.	2r	.	2r	.
.	.	.	.	.	16B-/	.	16B-/	.	.	.	.	.	.	.	.	.	.	.	.	.	.	.	.	.	.	.	.	.	.	.	.	.	.	.
8C'/	.	.	8B-'/	.	16c/	.	16A/	.	.	.	.	.	.	.	.	.	.	.	.	.	8BB-/	.	8d'/	.	8b-\	.	.	.	.	.	.	.	.	.
.	.	.	.	.	16c/JJ	.	16A/JJ	.	.	.	.	.	.	.	.	.	.	.	.	.	.	.	.	.	.	.	.	.	.	.	.	.	.	.
8D'/	.	.	8A'/	.	16d/LL	.	16d/LL	.	.	.	.	.	.	.	.	.	.	.	.	.	8BB-/	.	8d'/	.	8b-\	.	.	.	.	.	.	.	.	.
.	.	.	.	.	16d/	.	16d/	.	.	.	.	.	.	.	.	.	.	.	.	.	.	.	.	.	.	.	.	.	.	.	.	.	.	.
8BB-'/J	.	.	8B-'/J	.	16B-/	.	16B-/	.	.	.	.	.	.	.	.	.	.	.	.	.	8BB-/J	.	8d'/J	.	8b-\J	.	.	.	.	.	.	.	.	.
.	.	.	.	.	16B-/JJ	.	16B-/JJ	.	.	.	.	.	.	.	.	.	.	.	.	.	.	.	.	.	.	.	.	.	.	.	.	.	.	.
!	!	!	!	!	!	!	!	!	!	!	!	!	!	!	!	!	!	!	!	!	!	!	!	!	!LO:LB:g=original	!	!	!	!	!	!	!	!	!
=3	=3	=3	=3	=3	=3	=3	=3	=3	=3	=3	=3	=3	=3	=3	=3	=3	=3	=3	=3	=3	=3	=3	=3	=3	=3	=3	=3	=3	=3	=3	=3	=3	=3	=3
*	*	*	*	*	*	*	*	*	*	*	*	*	*	*	*	*	*	*	*ij	*	*Xtremolo	*	*Xtremolo	*	*Xtremolo	*	*	*	*	*	*	*	*	*
4AA/	.	.	4A\	.	4A/	.	4A/	.	2A\	cae-	.	2f\	Ple-	.	2cc\	cae-	.	2ee-\	Ple-	.	4FF/	.	4f/	rf	4cc\	.	4F\	.	2cc\	.	2ee-\	.	2aa\	.
4F^\	.	.	4f\	.	4A/ 4f	.	4A/ 4f	.	.	.	.	.	.	.	.	.	.	.	.	.	4FF^>/	.	4f^>/	.	4cc^\	.	4f\	.	.	.	.	.	.	.
2r	.	.	2r	.	2r	.	2r	.	4A\	-li	.	4f\	-ni	.	4cc\	-li	.	4ee-\	-ni	.	2r	.	2r	.	2r	.	4c\	.	4cc\	.	4ee-\	.	4aa\	.
.	.	.	.	.	.	.	.	.	4A\	et	.	4f\	sunt	.	4cc\	et	.	4ee-\	sunt	.	.	.	.	.	.	.	4A\	.	4cc\	.	4ee-\	.	4aa\	.
!	!	!	!	!	!	!	!LO:LB:g=original	!	!	!	!	!	!	!	!	!	!	!	!	!	!	!	!	!	!	!	!	!	!	!	!	!	!LO:LB:g=original	!
!	!	!	!	!	!	!	!	!	!	!	!	!	!	!	!	!	!	!	!	!	!LO:LB:g=original	!	!LO:LB:g=original	!	!	!	!	!	!	!	!	!	!	!
=4	=4	=4	=4	=4	=4	=4	=4	=4	=4	=4	=4	=4	=4	=4	=4	=4	=4	=4	=4	=4	=4	=4	=4	=4	=4	=4	=4	=4	=4	=4	=4	=4	=4	=4
8F'\L	.	.	8f\L	.	16f/LL	.	16f/LL	.	4A\	ter-	.	4f\	cae-	.	4cc\	ter-	.	4ee-\	cae-	.	8FF/L	.	8f/L	.	8cc\L	.	4F\	.	4cc\	.	4ee-\	.	4aa\	.
.	.	.	.	.	16f/	.	16f/	.	.	.	.	.	.	.	.	.	.	.	.	.	.	.	.	.	.	.	.	.	.	.	.	.	.	.
8En'\	.	.	8a\	.	16en/	.	16en/	.	.	.	.	.	.	.	.	.	.	.	.	.	16FF/L	.	16f/L	.	16cc\L	.	.	.	.	.	.	.	.	.
.	.	.	.	.	16e/JJ	.	16e/JJ	.	.	.	.	.	.	.	.	.	.	.	.	.	16FF/JJ	.	16f/JJ	.	16cc\JJ	.	.	.	.	.	.	.	.	.
*	*	*	*	*	*	*	*rep	*	*	*	*	*	*	*	*	*	*	*	*	*	*	*	*	*	*	*	*	*	*	*	*	*	*	*
8F'\	.	.	8g\	.	16f/LL	.	16f/LL	.	4A\	-ra	.	4f\	-li	.	4cc\	-ra	.	4ee-\	-li	.	8FF/L	.	8f/L	.	8cc\L	.	4f\	.	4cc\	.	4ee-\	.	4aa\	.
.	.	.	.	.	16f/	.	16f/	.	.	.	.	.	.	.	.	.	.	.	.	.	.	.	.	.	.	.	.	.	.	.	.	.	.	.
8E'\J	.	.	8f\J	.	16e/	.	16e/	.	.	.	.	.	.	.	.	.	.	.	.	.	8FF/J	.	8f/J	.	8cc\J	.	.	.	.	.	.	.	.	.
.	.	.	.	.	16e/JJ	.	16e/JJ	.	.	.	.	.	.	.	.	.	.	.	.	.	.	.	.	.	.	.	.	.	.	.	.	.	.	.
!	!	!	!	!	!LO:LB:g=original	!	!	!	!	!	!	!	!	!	!	!	!	!	!	!	!	!	!	!	!	!	!	!	!	!	!	!	!	!
*	*	*	*	*	*	*	*Xrep	*	*	*	*	*	*	*	*	*	*	*	*	*	*tremolo	*	*tremolo	*	*tremolo	*	*	*	*	*	*	*	*	*
8F'\L	.	.	8e-\L	.	16f/LL	.	16f/LL	.	2r	.	.	2r	.	.	2r	.	.	2r	.	.	8FF/L	.	8f/L	.	8cc\L	.	2r	.	2r	.	2r	.	2r	.
.	.	.	.	.	16f/	.	16f/	.	.	.	.	.	.	.	.	.	.	.	.	.	.	.	.	.	.	.	.	.	.	.	.	.	.	.
8G'\	.	.	8f\	.	16g/	.	16g/	.	.	.	.	.	.	.	.	.	.	.	.	.	8FF/	.	8f/	.	8cc\	.	.	.	.	.	.	.	.	.
.	.	.	.	.	16g/JJ	.	16g/JJ	.	.	.	.	.	.	.	.	.	.	.	.	.	.	.	.	.	.	.	.	.	.	.	.	.	.	.
8A'\	.	.	8en\	.	16a/LL	.	16a/LL	.	.	.	.	.	.	.	.	.	.	.	.	.	8FF/	.	8f/	.	8cc\	.	.	.	.	.	.	.	.	.
.	.	.	.	.	16a/	.	16a/	.	.	.	.	.	.	.	.	.	.	.	.	.	.	.	.	.	.	.	.	.	.	.	.	.	.	.
8F'\J	.	.	8f\J	.	16f/	.	16f/	.	.	.	.	.	.	.	.	.	.	.	.	.	8FF/J	.	8f/J	.	8cc\J	.	.	.	.	.	.	.	.	.
.	.	.	.	.	16f/JJ	.	16f/JJ	.	.	.	.	.	.	.	.	.	.	.	.	.	.	.	.	.	.	.	.	.	.	.	.	.	.	.
=5	=5	=5	=5	=5	=5	=5	=5	=5	=5	=5	=5	=5	=5	=5	=5	=5	=5	=5	=5	=5	=5	=5	=5	=5	=5	=5	=5	=5	=5	=5	=5	=5	=5	=5
*	*	*	*	*	*	*	*	*	*	*	*	*	*ij	*	*	*	*	*	*Xij	*	*Xtremolo	*	*Xtremolo	*	*Xtremolo	*	*	*	*	*	*	*	*	*
4B-\	.	.	4b-\	.	4d/ 4b-	.	4b-\	.	2B-\	ple-	.	2f\	Ple-	.	2b-\	Ple-	.	2dd\	Ple-	.	4BB-/	.	4d/	.	4b-\	.	4BB-/	.	2b-\	.	2dd\	.	2ddd\	.
4B-\	.	.	4B-/	.	4d/ 4b-	.	4b-\ 4bb-	.	.	.	.	.	.	.	.	.	.	.	.	.	4BB-/	.	4d/	.	4b-^\	.	4B-\	.	.	.	.	.	.	.
2r	.	.	2r	.	2r	.	2r	.	4B-\	-ni	.	4f\	-ni	.	4b-\	-ni	.	4dd\	-ni	.	2r	.	2r	.	2r	.	4F\	.	4b-\	.	4dd\	.	4ddd\	.
.	.	.	.	.	.	.	.	.	4B-\	sunt	.	4f\	sunt	.	4b-\	sunt	.	4dd\	sunt	.	.	.	.	.	.	.	4D\	.	4b-\	.	4dd\	.	4ddd\	.
!	!	!	!	!	!	!	!	!	!	!	!	!	!	!	!	!	!	!	!	!	!	!	!	!	!	!	!LO:LB:g=original	!	!	!	!	!	!	!
=6	=6	=6	=6	=6	=6	=6	=6	=6	=6	=6	=6	=6	=6	=6	=6	=6	=6	=6	=6	=6	=6	=6	=6	=6	=6	=6	=6	=6	=6	=6	=6	=6	=6	=6
!	!	!	!	!	!	!	!	!	!	!	!	!	!	!	!	!	!	!	!	!	!LO:TX:a:t=1	!	!	!	!LO:TX:a:t=1	!	!	!	!	!	!	!	!	!
4BB-/	.	p	4b-\	.	8.b-\L	p	8.bb-\L	.	4B-\	cae-	.	4f\	cae-	.	4b-\	cae-	.	4dd\	cae-	.	1r	.	1r	.	1r	.	4BB-/	.	4b-\	.	4dd\	.	4ddd\	.
.	.	.	.	.	16a\K	.	16aa\K	.	.	.	.	.	.	.	.	.	.	.	.	.	.	.	.	.	.	.	.	.	.	.	.	.	.	.
4r	.	.	4r	.	8.b-\	.	8.bb-\	.	4B-\	-li	.	4f\	-li	.	4b-\	-li	.	4dd\	-li	.	.	.	.	.	.	.	4B-\	.	4b-\	.	4dd\	.	4ddd\	.
*	*	*	*	*	*	*	*	*	*	*	*	*	*Xij	*	*	*	*	*	*	*	*	*	*	*	*	*	*	*	*	*	*	*	*	*
.	.	.	.	.	16a\Jk	.	16aa\Jk	.	.	.	.	.	.	.	.	.	.	.	.	.	.	.	.	.	.	.	.	.	.	.	.	.	.	.
4B-\	.	.	4B-/	.	8.b-\L	.	8.bb-\L	.	2r	.	.	2r	.	.	2r	.	.	2r	.	.	.	.	.	.	.	.	2r	.	2r	.	2r	.	2r	.
.	.	.	.	.	16cc\K	.	16ccc\K	.	.	.	.	.	.	.	.	.	.	.	.	.	.	.	.	.	.	.	.	.	.	.	.	.	.	.
4r	.	.	4r	.	8.dd\	.	8.ddd\	.	.	.	.	.	.	.	.	.	.	.	.	.	.	.	.	.	.	.	.	.	.	.	.	.	.	.
.	.	.	.	.	16cc\Jk	.	16bb-\Jk	.	.	.	.	.	.	.	.	.	.	.	.	.	.	.	.	.	.	.	.	.	.	.	.	.	.	.
!LO:LB:g=original	!	!	!LO:LB:g=original	!	!	!	!	!	!LO:LB:g=original	!	!	!	!	!	!LO:LB:g=original	!	!	!LO:LB:g=original	!	!	!	!	!	!	!	!	!	!	!	!	!	!	!	!
=7	=7	=7	=7	=7	=7	=7	=7	=7	=7	=7	=7	=7	=7	=7	=7	=7	=7	=7	=7	=7	=7	=7	=7	=7	=7	=7	=7	=7	=7	=7	=7	=7	=7	=7
4F\	7 5	.	4a\	.	4a/	.	4aa\	.	2A\	cae-	.	2f\	cae-	.	2cc\	cae-	.	2ee-\	cae-	.	4r	.	4r	.	4r	.	4A\	.	4cc\	.	4ee-\	.	4eee-\	.
8.F\L	.	.	8.ee-\L	.	2f^\ 2ee-	.	4.ff^<T\	.	.	.	.	.	.	.	.	.	.	.	.	.	8.FF/L	.	8.f/L	.	8.cc\L	.	(8e-\L	.	2cc^\	.	2ee-^\	.	2eee-^\	.
.	.	.	.	.	.	.	.	.	.	.	.	.	.	.	.	.	.	.	.	.	.	.	.	.	.	.	8c\J)	.	.	.	.	.	.	.
16A\Jk	.	.	16cc\Jk	.	.	.	.	.	.	.	.	.	.	.	.	.	.	.	.	.	16FF/Jk	.	16f/Jk	.	16cc\Jk	.	.	.	.	.	.	.	.	.
4c\	.	.	8.a\L	.	.	.	.	.	4A\	-li	.	4f\	-li	.	4cc\	-li	.	4ee-\	-li	.	4FF/	.	4f/	.	4cc\	.	8.A\L	.	.	.	.	.	.	.
.	.	.	.	.	.	.	8ff\L	.	.	.	.	.	.	.	.	.	.	.	.	.	.	.	.	.	.	.	.	.	.	.	.	.	.	.
.	.	.	16f\K	.	.	.	.	.	.	.	.	.	.	.	.	.	.	.	.	.	.	.	.	.	.	.	16F\K	.	.	.	.	.	.	.
4f\	.	.	8.e-\	.	4f/ 4ee-	.	8gg\	.	4A\	et	.	4f\	et	.	4cc\	et	.	4ee-\	et	.	4FF/	.	4f/	.	4cc\	.	8.E-\	.	4cc\	.	4ee-\	.	4eee-\	.
.	.	.	.	.	.	.	8aa\J	.	.	.	.	.	.	.	.	.	.	.	.	.	.	.	.	.	.	.	.	.	.	.	.	.	.	.
.	.	.	16c\Jk	.	.	.	.	.	.	.	.	.	.	.	.	.	.	.	.	.	.	.	.	.	.	.	16C\Jk	.	.	.	.	.	.	.
=8	=8	=8	=8	=8	=8	=8	=8	=8	=8	=8	=8	=8	=8	=8	=8	=8	=8	=8	=8	=8	=8	=8	=8	=8	=8	=8	=8	=8	=8	=8	=8	=8	=8	=8
4d\	.	.	4B-/	.	8.dd\L	.	8.bb-\L	.	4B-\	ter-	.	4f\	ter-	.	4b-\	ter-	.	4dd\	ter-	.	4BB-/	.	4d/	.	4b-\	.	4BB-/	.	4b-\	.	4dd\	.	4ddd\	.
.	.	.	.	.	16a\K	.	16aa\K	.	.	.	.	.	.	.	.	.	.	.	.	.	.	.	.	.	.	.	.	.	.	.	.	.	.	.
4B-\	.	.	4b-\	.	8.b-\	.	8.bb-\	.	4B-\	-ra	.	4f\	-ra	.	4b-\	-ra	.	4dd\	-ra	.	4r	.	4r	.	4r	.	4B-\	.	4b-\	.	4dd\	.	4ddd\	.
.	.	.	.	.	16a\Jk	.	16aa\Jk	.	.	.	.	.	.	.	.	.	.	.	.	.	.	.	.	.	.	.	.	.	.	.	.	.	.	.
2r	.	.	2r	.	8.b-\L	.	8.bb-\L	.	2r	.	.	2r	.	.	2r	.	.	2r	.	.	2r	.	2r	.	2r	.	2r	.	2r	.	2r	.	2r	.
.	.	.	.	.	16cc\K	.	16ccc\K	.	.	.	.	.	.	.	.	.	.	.	.	.	.	.	.	.	.	.	.	.	.	.	.	.	.	.
.	.	.	.	.	8.dd\	.	8.ddd\	.	.	.	.	.	.	.	.	.	.	.	.	.	.	.	.	.	.	.	.	.	.	.	.	.	.	.
.	.	.	.	.	16b-\Jk	.	16bb-\Jk	.	.	.	.	.	.	.	.	.	.	.	.	.	.	.	.	.	.	.	.	.	.	.	.	.	.	.
!	!	!	!	!	!LO:LB:g=original	!	!LO:LB:g=original	!	!	!	!	!	!	!	!	!	!	!	!	!	!	!	!	!	!	!	!	!	!	!	!	!	!	!
!	!	!	!	!	!	!	!	!	!	!	!	!	!	!	!	!	!	!	!	!	!	!	!	!	!	!	!	!	!LO:LB:g=original	!	!LO:LB:g=original	!	!	!
=9	=9	=9	=9	=9	=9	=9	=9	=9	=9	=9	=9	=9	=9	=9	=9	=9	=9	=9	=9	=9	=9	=9	=9	=9	=9	=9	=9	=9	=9	=9	=9	=9	=9	=9
4F\	7_ 5_	.	4a\	.	4a/	.	4aa\	.	4A\	cae-	.	4f\	cae-	.	4cc\	cae-	.	4ee-\	cae-	.	4r	.	4r	.	4r	.	4F\	.	4cc\	.	4ee-\	.	4eee-\	.
8.F\L	.	.	8.ee-\L	.	2f^/ 2ee-	.	4.ff^<T\	.	8A\	-li	.	8f\	-li	.	8cc\	-li	.	8ee-\	-li	.	8.FF/L	.	8.f/L	.	8.cc\L	.	8e-\L	.	2cc\	.	2ee-^\	.	2eee-^<\	.
.	.	.	.	.	.	.	.	.	8A\	et	.	8f\	et	.	8cc\	et	.	8ee-\	et	.	.	.	.	.	.	.	8c\J	.	.	.	.	.	.	.
16A\Jk	.	.	16cc\Jk	.	.	.	.	.	.	.	.	.	.	.	.	.	.	.	.	.	16FF/Jk	.	16f/Jk	.	16cc\Jk	.	.	.	.	.	.	.	.	.
4c\	.	.	8.a\L	.	.	.	.	.	2A\	ter-	.	2f\	ter-	.	2cc\	ter-	.	2ee-\	ter-	.	4FF/	.	4f/	.	4cc\	.	8.A\L	.	.	.	.	.	.	.
.	.	.	.	.	.	.	8ff\L	.	.	.	.	.	.	.	.	.	.	.	.	.	.	.	.	.	.	.	.	.	.	.	.	.	.	.
.	.	.	16f\K	.	.	.	.	.	.	.	.	.	.	.	.	.	.	.	.	.	.	.	.	.	.	.	16F\K	.	.	.	.	.	.	.
4e-\	.	.	8.e-\	.	4f/ 4ee-	.	8gg\	.	.	.	.	.	.	.	.	.	.	.	.	.	4FF/	.	4f/	.	4cc\	.	8.E-\	.	4cc\	.	4ee-\	.	4eee-\	.
.	.	.	.	.	.	.	8aa\J	.	.	.	.	.	.	.	.	.	.	.	.	.	.	.	.	.	.	.	.	.	.	.	.	.	.	.
.	.	.	16c\Jk	.	.	.	.	.	.	.	.	.	.	.	.	.	.	.	.	.	.	.	.	.	.	.	16C\Jk	.	.	.	.	.	.	.
=10	=10	=10	=10	=10	=10	=10	=10	=10	=10	=10	=10	=10	=10	=10	=10	=10	=10	=10	=10	=10	=10	=10	=10	=10	=10	=10	=10	=10	=10	=10	=10	=10	=10	=10
4d\	.	f	4B-/	.	4dd\	.	4bb-\	.	4B-\	-ra	.	4f\	-ra	.	4b-\	-ra	.	4dd\	-ra	.	4r	.	4r	.	4r	.	4BB-/	.	4b-\	.	4dd\	.	4ddd\	.
!LO:TX:t=P:problem= problem klamry łukowej	!	!	!	!	!	!	!	!	!	!	!	!	!	!	!	!	!	!	!	!	!	!	!	!	!	!	!LO:TX:t=P:probem: problem klamry łukowej	!	!	!	!	!	!	!
12BB-/L	.	.	4B-/	.	2d^/ 2b-	.	2b-^<\ 2bb-	.	2B-^\	Glo-	.	2f^\	Glo-	.	2b-^\	Glo-	.	2dd^\	Glo-	.	4BB-^>/	.	2d^/	ff	2b-^\	.	12BB-/L	.	2b-^\	.	2dd^\	.	2ddd^<\	.
12D/	.	.	.	.	.	.	.	.	.	.	.	.	.	.	.	.	.	.	.	.	.	.	.	.	.	.	12D/	.	.	.	.	.	.	.
12F/J	.	.	.	.	.	.	.	.	.	.	.	.	.	.	.	.	.	.	.	.	.	.	.	.	.	.	12F/J	.	.	.	.	.	.	.
4B-\	.	.	4b-\	.	.	.	.	.	.	.	.	.	.	.	.	.	.	.	.	.	2r	.	.	.	.	.	4B-\	.	.	.	.	.	.	.
4r	.	.	4r	.	4b-\	.	4ddt\	.	4B-\	-ri-	.	4f\	-ri-	.	4b-\	-ri-	.	4dd\	-ri-	.	.	.	4r	.	4r	.	4r	.	4b-\	.	4dd\	.	4ddd\	.
=11	=11	=11	=11	=11	=11	=11	=11	=11	=11	=11	=11	=11	=11	=11	=11	=11	=11	=11	=11	=11	=11	=11	=11	=11	=11	=11	=11	=11	=11	=11	=11	=11	=11	=11
4E-\	5_ 3_	.	4B-/	.	4b-\	.	4ee-\	.	4B-\	-a	.	4g\	-a	.	4b-\	-a	.	4ee-\	-a	.	4r	.	4r	.	4r	.	4BB-/	.	4cc\	.	4ee-\	.	4eee-\	.
!	!	!	!	!	!	!	!	!	!	!	!	!	!	!	!	!	!	!	!	!	!	!	!	!	!	!	!LO:TX:t=P:probem: problem klamry łukowej	!	!	!	!	!	!	!
*Xtuplet	*	*	*	*	*	*	*	*	*	*	*	*	*	*	*	*	*	*	*	*	*	*	*	*	*	*	*	*	*	*	*	*	*	*
12BB-\L	.	.	4b-\	.	2e-^/ 2b-	.	4.b-\ 4.bb-	.	2B-^\	Glo-	.	2g\	glo-	.	2b-^\	Glo-	.	2ee-\	Glo-	.	4BB-^>/	.	2B-/	.	2b-^\	.	12BB-/L	.	2cc^\	.	2ee-\	.	2eee-^\	.
12E-\	.	.	.	.	.	.	.	.	.	.	.	.	.	.	.	.	.	.	.	.	.	.	.	.	.	.	12E-/	.	.	.	.	.	.	.
12G\J	.	.	.	.	.	.	.	.	.	.	.	.	.	.	.	.	.	.	.	.	.	.	.	.	.	.	12G/J	.	.	.	.	.	.	.
4B-\	.	.	4b-\	.	.	.	.	.	.	.	.	.	.	.	.	.	.	.	.	.	2r	.	.	.	.	.	4B-\	.	.	.	.	.	.	.
.	.	.	.	.	.	.	8een\	.	.	.	.	.	.	.	.	.	.	.	.	.	.	.	.	.	.	.	.	.	.	.	.	.	.	.
4r	.	.	4r	.	4cc#X\	.	4eet\	.	4B-\	-ri-	.	4g\	-ri-	.	4b-\	-ri-	.	4een\	-ri-	.	.	.	4r	.	4r	.	4r	.	4cc#X\	.	4eeX\	.	4eeen\	.
!	!	!	!	!	!	!	!	!	!	!	!	!	!	!	!	!	!	!	!	!	!LO:LB:g=original	!	!LO:LB:g=original	!	!	!	!	!	!	!	!	!	!	!
=12	=12	=12	=12	=12	=12	=12	=12	=12	=12	=12	=12	=12	=12	=12	=12	=12	=12	=12	=12	=12	=12	=12	=12	=12	=12	=12	=12	=12	=12	=12	=12	=12	=12	=12
4B-\	5 3	.	4b-\	.	8dd\L	.	8ff\L	.	2B-\	-a	.	2d\	-a	.	2b-\	-a	.	2ff\	-a	.	4BB-/	.	4b-\	.	4dd\	.	4B-\	.	4dd\	.	4ff\	.	4fff\	.
.	.	.	.	.	16een\L	.	16gg\L	.	.	.	.	.	.	.	.	.	.	.	.	.	.	.	.	.	.	.	.	.	.	.	.	.	.	.
.	.	.	.	.	16dd#X\JJ	.	16aa\JJ	.	.	.	.	.	.	.	.	.	.	.	.	.	.	.	.	.	.	.	.	.	.	.	.	.	.	.
4r	.	.	4d\	.	16ddn\LL	.	16bb-\LL	.	.	.	.	.	.	.	.	.	.	.	.	.	4r	.	4r	.	4r	.	4d\	.	4b-\	.	4dd\	.	4ddd\	.
.	.	.	.	.	16cc\	.	16ccc\	.	.	.	.	.	.	.	.	.	.	.	.	.	.	.	.	.	.	.	.	.	.	.	.	.	.	.
.	.	.	.	.	16b-\	.	16ddd\	.	.	.	.	.	.	.	.	.	.	.	.	.	.	.	.	.	.	.	.	.	.	.	.	.	.	.
.	.	.	.	.	16cc\JJ	.	16eee-X\JJ	.	.	.	.	.	.	.	.	.	.	.	.	.	.	.	.	.	.	.	.	.	.	.	.	.	.	.
8r	.	.	4f\	.	4f/ 4dd	.	4fff\	.	2F\	tu-	.	2e-\	tu-	.	2f\	tu-	.	2a\	tu-	.	4FF/	.	4f/	.	4cc\	.	4f\	.	4a\	.	4cc\	.	4eee-X\	.
16e-\LL	4_ 2_	.	.	.	.	.	.	.	.	.	.	.	.	.	.	.	.	.	.	.	.	.	.	.	.	.	.	.	.	.	.	.	.	.
16c\JJ	.	.	.	.	.	.	.	.	.	.	.	.	.	.	.	.	.	.	.	.	.	.	.	.	.	.	.	.	.	.	.	.	.	.
16A\LL	.	.	4F/	.	4f/ 4ee-X	.	4cc\ 4aa	.	.	.	.	.	.	.	.	.	.	.	.	.	4FF/	.	4f/	.	4cc\	.	4F\	.	4dd\	.	4ff\	.	4ccc\	.
16F\	.	.	.	.	.	.	.	.	.	.	.	.	.	.	.	.	.	.	.	.	.	.	.	.	.	.	.	.	.	.	.	.	.	.
16E-\	.	.	.	.	.	.	.	.	.	.	.	.	.	.	.	.	.	.	.	.	.	.	.	.	.	.	.	.	.	.	.	.	.	.
16C\JJ	.	.	.	.	.	.	.	.	.	.	.	.	.	.	.	.	.	.	.	.	.	.	.	.	.	.	.	.	.	.	.	.	.	.
!LO:LB:g=original	!	!	!	!	!	!	!	!	!	!	!	!	!	!	!	!	!	!	!	!	!	!	!	!	!LO:LB:g=original	!	!	!	!	!	!	!	!	!
=13	=13	=13	=13	=13	=13	=13	=13	=13	=13	=13	=13	=13	=13	=13	=13	=13	=13	=13	=13	=13	=13	=13	=13	=13	=13	=13	=13	=13	=13	=13	=13	=13	=13	=13
4BB-/	.	.	4B-/	.	4f/ 4dd	.	4dd\ 4bb-	.	4BB-/	-a	.	4d\	-a	.	4f\	-a	.	4b-\	-a	.	4BB-/	.	4d/	.	4b-\	.	4B-\	.	4b-\	.	4dd\	.	4bb-\	.
4B-\	.	.	4b-\	.	4d/ 4b-	.	4d/ 4b-	.	4r	.	.	4r	.	.	4r	.	.	4r	.	.	4BB-/	.	4d/	.	4b-\	.	4BB-/	.	4b-\	.	4dd\	.	4bb-\	.
!	!	!	!	!	!	!	!LO:TX:b:t=Verte Cito Solo	!	!	!	!	!	!	!	!	!	!	!	!	!	!	!	!	!	!	!	!	!	!	!	!	!	!	!
2r	.	.	2r	.	2r	.	2r	.	2r	.	.	2r	.	.	2r	.	.	4r	.	.	2r	.	2r	.	2r	.	2r	.	2r	.	2r	.	2r	.
.	.	.	.	.	.	.	.	.	.	.	.	.	.	.	.	.	.	8.r	.	.	.	.	.	.	.	.	.	.	.	.	.	.	.	.
!	!	!	!	!	!	!	!	!	!	!	!	!	!	!	!	!	!	!LO:TX:a:t=Solo	!	!	!	!	!	!	!	!	!	!	!	!	!	!	!	!
.	.	.	.	.	.	.	.	.	.	.	.	.	.	.	.	.	.	16f/	O-	.	.	.	.	.	.	.	.	.	.	.	.	.	.	.
!	!	!	!	!	!	!	!LO:LB:g=original	!	!LO:LB:g=original	!	!	!LO:LB:g=original	!	!	!LO:LB:g=original	!	!	!LO:LB:g=original	!	!	!	!	!	!	!	!	!	!	!	!	!	!	!	!
!	!	!	!	!	!	!	!	!	!	!	!	!	!	!	!	!	!	!	!	!	!	!	!	!	!	!	!	!	!	!	!	!	!LO:LB:g=original	!
=14	=14	=14	=14	=14	=14	=14	=14	=14	=14	=14	=14	=14	=14	=14	=14	=14	=14	=14	=14	=14	=14	=14	=14	=14	=14	=14	=14	=14	=14	=14	=14	=14	=14	=14
!	!	!	!	!	!	!	!	!	!LO:TX:a:t=4	!	!	!LO:TX:a:t=4	!	!	!LO:TX:a:t=4	!	!	!	!	!	!LO:TX:a:t=7	!	!LO:TX:a:t=7	!	!LO:TX:a:t=7	!	!	!	!LO:TX:a:t=4	!	!	!	!	!
4B-\	.	p	4b-\	.	4r	.	4r	.	1r	.	.	1r	.	.	1r	.	.	2.f/	.	.	1r	.	1r	.	1r	.	4BB-/	p	1r	.	1r	.	1r	.
4r	.	.	4r	.	4d/	p	4f/	p	.	.	.	.	.	.	.	.	.	.	.	.	.	.	.	.	.	.	4r	.	.	.	.	.	.	.
4BB-/	.	.	4B-/	.	4r	.	4r	.	.	.	.	.	.	.	.	.	.	.	.	.	.	.	.	.	.	.	4B-\	.	.	.	.	.	.	.
4r	.	.	4r	.	4d/	.	4f/	.	.	.	.	.	.	.	.	.	.	8.dd\L	.	.	.	.	.	.	.	.	4r	.	.	.	.	.	.	.
.	.	.	.	.	.	.	.	.	.	.	.	.	.	.	.	.	.	16b-\Jk	.	.	.	.	.	.	.	.	.	.	.	.	.	.	.	.
!	!	!	!LO:LB:g=original	!	!	!	!	!	!	!	!	!	!	!	!	!	!	!	!	!	!	!	!	!	!	!	!	!	!	!	!	!	!	!
!	!	!	!	!	!	!	!	!	!	!	!	!	!	!	!	!	!	!	!	!	!	!	!	!	!	!	!LO:LB:g=original	!	!	!	!	!	!	!
=15	=15	=15	=15	=15	=15	=15	=15	=15	=15	=15	=15	=15	=15	=15	=15	=15	=15	=15	=15	=15	=15	=15	=15	=15	=15	=15	=15	=15	=15	=15	=15	=15	=15	=15
!	!	!	!	!	!	!	!	!	!	!	!	!	!	!	!	!	!	!	!	!	!	!	!	!	!	!	!	!	!	!	!	!	!LO:TX:a:i:t=dolce	!
4F\	7_ 5_	.	4f\	.	4r	.	4r	.	1r	.	.	1r	.	.	1r	.	.	(8.a\L	-san-	.	1r	.	1r	.	1r	.	4F\	.	1r	.	4r	.	4r	.
.	.	.	.	.	.	.	.	.	.	.	.	.	.	.	.	.	.	16cc\Jk)	.	.	.	.	.	.	.	.	.	.	.	.	.	.	.	.
4r	.	.	4r	.	4e-/	.	4f/	.	.	.	.	.	.	.	.	.	.	4f/	-na	.	.	.	.	.	.	.	4r	.	.	.	8r	.	8r	.
.	.	.	.	.	.	.	.	.	.	.	.	.	.	.	.	.	.	.	.	.	.	.	.	.	.	.	.	.	.	.	8f/	.	8ff\	.
4F\	.	.	4F/	.	4r	.	4r	.	.	.	.	.	.	.	.	.	.	2r	.	.	.	.	.	.	.	.	4f\	.	.	.	8eX/L	.	(8een\L	.
.	.	.	.	.	.	.	.	.	.	.	.	.	.	.	.	.	.	.	.	.	.	.	.	.	.	.	.	.	.	.	8f/	.	8ff\	.
4r	.	.	4r	.	4e-/	.	4f/	.	.	.	.	.	.	.	.	.	.	.	.	.	.	.	.	.	.	.	4r	.	.	.	8a/	.	8aa\	.
.	.	.	.	.	.	.	.	.	.	.	.	.	.	.	.	.	.	.	.	.	.	.	.	.	.	.	.	.	.	.	8cc/J	.	8ccc\J)	.
=16	=16	=16	=16	=16	=16	=16	=16	=16	=16	=16	=16	=16	=16	=16	=16	=16	=16	=16	=16	=16	=16	=16	=16	=16	=16	=16	=16	=16	=16	=16	=16	=16	=16	=16
4F\	.	.	4f\	.	4r	.	4r	.	1r	.	.	1r	.	.	1r	.	.	2.f/	O-	.	1r	.	1r	.	1r	.	4F\	.	1r	.	8..ee-\L	.	8.eee-\L	.
.	.	.	.	.	.	.	.	.	.	.	.	.	.	.	.	.	.	.	.	.	.	.	.	.	.	.	.	.	.	.	.	.	16ccc\Jk	.
.	.	.	.	.	.	.	.	.	.	.	.	.	.	.	.	.	.	.	.	.	.	.	.	.	.	.	.	.	.	.	32cc\Jkk	.	.	.
4r	.	.	4r	.	4e-/	.	4f/	.	.	.	.	.	.	.	.	.	.	.	.	.	.	.	.	.	.	.	4r	.	.	.	4a\	.	4aa\	.
4F\	.	.	4F/	.	4r	.	4r	.	.	.	.	.	.	.	.	.	.	.	.	.	.	.	.	.	.	.	4F\	.	.	.	2r	.	2r	.
4r	.	.	4r	.	4e-/	.	4f/	.	.	.	.	.	.	.	.	.	.	8.ee-\L	.	.	.	.	.	.	.	.	4r	.	.	.	.	.	.	.
.	.	.	.	.	.	.	.	.	.	.	.	.	.	.	.	.	.	16cc\Jk	.	.	.	.	.	.	.	.	.	.	.	.	.	.	.	.
!	!	!	!	!	!LO:LB:g=original	!	!	!	!	!	!	!	!	!	!	!	!	!	!	!	!	!	!	!	!	!	!	!	!	!	!	!	!	!
=17	=17	=17	=17	=17	=17	=17	=17	=17	=17	=17	=17	=17	=17	=17	=17	=17	=17	=17	=17	=17	=17	=17	=17	=17	=17	=17	=17	=17	=17	=17	=17	=17	=17	=17
4B-\	.	.	4B-/	.	4r	.	4r	.	1r	.	.	1r	.	.	1r	.	.	8.b-\L	-san-	.	1r	.	1r	.	1r	.	4BB-/	.	1r	.	4r	.	4r	.
.	.	.	.	.	.	.	.	.	.	.	.	.	.	.	.	.	.	16dd\Jk	.	.	.	.	.	.	.	.	.	.	.	.	.	.	.	.
4r	.	.	4r	.	4d/	.	4f/	.	.	.	.	.	.	.	.	.	.	4f/	-na	.	.	.	.	.	.	.	4r	.	.	.	8r	.	8r	.
.	.	.	.	.	.	.	.	.	.	.	.	.	.	.	.	.	.	.	.	.	.	.	.	.	.	.	.	.	.	.	8f/	.	8ff\	.
4BB-/	.	.	4b-\	.	4r	.	4r	.	.	.	.	.	.	.	.	.	.	2r	.	.	.	.	.	.	.	.	4B-\	.	.	.	8eX\L	.	8een\L	.
.	.	.	.	.	.	.	.	.	.	.	.	.	.	.	.	.	.	.	.	.	.	.	.	.	.	.	.	.	.	.	8f\	.	8ff\	.
4r	.	.	4r	.	4d/	.	4f/	.	.	.	.	.	.	.	.	.	.	.	.	.	.	.	.	.	.	.	4r	.	.	.	8b-\	.	8bb-\	.
.	.	.	.	.	.	.	.	.	.	.	.	.	.	.	.	.	.	.	.	.	.	.	.	.	.	.	.	.	.	.	8dd\J	.	8ddd\J	.
!	!	!	!	!	!	!	!	!	!	!	!	!	!	!	!	!	!	!	!	!	!	!	!	!	!	!	!	!	!	!	!LO:LB:g=original	!	!	!
=18	=18	=18	=18	=18	=18	=18	=18	=18	=18	=18	=18	=18	=18	=18	=18	=18	=18	=18	=18	=18	=18	=18	=18	=18	=18	=18	=18	=18	=18	=18	=18	=18	=18	=18
4B-\	.	.	4b-\	.	2d/	.	2f/	.	2D\	o-	.	2f\	O-	.	2b-\	O-	.	4ff\	O-	.	1r	.	1r	.	1r	.	4BB-/	.	2dd\	.	8..ff\L	.	2fff\	.
.	.	.	.	.	.	.	.	.	.	.	.	.	.	.	.	.	.	.	.	.	.	.	.	.	.	.	.	.	.	.	32dd\Jkk	.	.	.
4r	.	.	4r	.	.	.	.	.	.	.	.	.	.	.	.	.	.	8ff\	-san-	.	.	.	.	.	.	.	4r	.	.	.	4b-\	.	.	.
.	.	.	.	.	.	.	.	.	.	.	.	.	.	.	.	.	.	8ff\	-na	.	.	.	.	.	.	.	.	.	.	.	.	.	.	.
4D\	6 3	.	4B-/	.	2r	.	2r	.	4D\	-san-	.	4f\	-san-	.	4b-\	-san-	.	4bb-\	in	.	.	.	.	.	.	.	4B-\	.	2r	.	2r	.	2r	.
4r	.	.	4r	.	.	.	.	.	4D\	-na	.	4f\	-na	.	4b-\	-na	.	4dd\	ex-	.	.	.	.	.	.	.	4r	.	.	.	.	.	.	.
=19	=19	=19	=19	=19	=19	=19	=19	=19	=19	=19	=19	=19	=19	=19	=19	=19	=19	=19	=19	=19	=19	=19	=19	=19	=19	=19	=19	=19	=19	=19	=19	=19	=19	=19
4E-\	6 3	.	4e-\	f	4g/	.	4cc\	.	4E-\	in	.	4g\	in	.	4cc\	in	.	(16cc\LL	-cel-	.	1r	.	1r	.	1r	.	4E-\	f	4e-/	.	4cc\	.	4gg\	.
.	.	.	.	.	.	.	.	.	.	.	.	.	.	.	.	.	.	16bn\)	.	.	.	.	.	.	.	.	.	.	.	.	.	.	.	.
.	.	.	.	.	.	.	.	.	.	.	.	.	.	.	.	.	.	(16dd\	.	.	.	.	.	.	.	.	.	.	.	.	.	.	.	.
.	.	.	.	.	.	.	.	.	.	.	.	.	.	.	.	.	.	16cc\JJ)	.	.	.	.	.	.	.	.	.	.	.	.	.	.	.	.
4r	.	.	2e-^\	.	4r	rf	4r	.	4E-\	ex-	.	4g\	ex-	.	4cc\	ex-	.	(16ee-\LL	.	.	.	.	.	.	.	.	2E-^\	.	4r	.	4r	.	4r	.
.	.	.	.	.	.	.	.	.	.	.	.	.	.	.	.	.	.	16dd\)	.	.	.	.	.	.	.	.	.	.	.	.	.	.	.	.
.	.	.	.	.	.	.	.	.	.	.	.	.	.	.	.	.	.	(16ff\	.	.	.	.	.	.	.	.	.	.	.	.	.	.	.	.
.	.	.	.	.	.	.	.	.	.	.	.	.	.	.	.	.	.	16ee-\JJ)	.	.	.	.	.	.	.	.	.	.	.	.	.	.	.	.
.	.	.	.	.	.	.	((8qaa/	.	.	.	.	.	.	.	.	.	.	.	.	.	.	.	.	.	.	.	.	.	.	.	.	.	.	.
4r	.	.	.	.	8g/ 8b-	>	16gg\LL	.	2En\	-cel-	.	2g^\	-cel-	.	2cc\	-cel-	.	4gg\	.	.	.	.	.	.	.	.	.	.	4r	.	4r	.	4r	.
.	.	.	.	.	.	.	16ff#X\)	.	.	.	.	.	.	.	.	.	.	.	.	.	.	.	.	.	.	.	.	.	.	.	.	.	.	.
.	.	.	.	.	4g/ 4b-	.	(16gg\	.	.	.	.	.	.	.	.	.	.	.	.	.	.	.	.	.	.	.	.	.	.	.	.	.	.	.
.	.	.	.	.	.	.	16aa\JJ)	.	.	.	.	.	.	.	.	.	.	.	.	.	.	.	.	.	.	.	.	.	.	.	.	.	.	.
!	!	!	!LO:TX:t=P:problem=jest sam kasownik, brak nuty	!	!	!	!	!	!	!	!	!	!	!	!	!	!	!	!	!	!	!	!	!	!	!	!	!	!	!	!	!	!	!
4En\	6| 3	.	4en\	.	.	.	(16bb-\LL	.	.	.	.	.	.	.	.	.	.	4een\	.	.	.	.	.	.	.	.	4En\	.	4cc#X\	.	4eeX\	.	4eeen\	.
.	.	.	.	.	.	.	16ccc\)	.	.	.	.	.	.	.	.	.	.	.	.	.	.	.	.	.	.	.	.	.	.	.	.	.	.	.
.	.	.	.	.	8g/ 8b-	]]	(16ddd-X\	.	.	.	.	.	.	.	.	.	.	.	.	.	.	.	.	.	.	.	.	.	.	.	.	.	.	.
.	.	.	.	.	.	.	16een\JJ))	.	.	.	.	.	.	.	.	.	.	.	.	.	.	.	.	.	.	.	.	.	.	.	.	.	.	.
!	!	!	!	!	!	!	!LO:LB:g=original	!	!	!	!	!	!	!	!	!	!	!LO:LB:g=original	!	!	!	!	!	!	!	!	!	!	!	!	!	!	!	!
=20	=20	=20	=20	=20	=20	=20	=20	=20	=20	=20	=20	=20	=20	=20	=20	=20	=20	=20	=20	=20	=20	=20	=20	=20	=20	=20	=20	=20	=20	=20	=20	=20	=20	=20
4F\	6 4	.	4f\	.	4dd\	.	4ff\	.	4D\	-sis	.	4f\	-sis	.	4b-\	-sis	.	4ff\	-sis	.	1r	.	1r	.	1r	.	4F\	.	4dd\	.	4ff\	.	4fff\	.
!	!	!	!LO:TX:t=P:problem=niejednoznaczny zapis	!	!	!	!	!	!	!	!	!	!	!	!	!	!	!	!	!	!	!	!	!	!	!	!	!	!	!	!	!	!	!
!	!	!	!LO:TX:a:t=c	!	!	!	!	!	!	!	!	!	!	!	!	!	!	!	!	!	!	!	!	!	!	!	!	!	!	!	!	!	!	!
2D^\	6 3	.	2dd^\	.	4d/ 4b-	.	4.dddn^\	.	4r	.	.	4r	.	.	4r	.	.	4r	.	.	.	.	.	.	.	.	2B-^\	.	2dd^\	.	2bb-^\	.	2bb-^\	.
.	.	.	.	.	4d/ 4b-	.	.	.	2r	.	.	2r	.	.	2r	.	.	2r	.	.	.	.	.	.	.	.	.	.	.	.	.	.	.	.
!	!	!	!	!	!	!	!LO:TX:t=P:problem= problem klamry łukowej	!	!	!	!	!	!	!	!	!	!	!	!	!	!	!	!	!	!	!	!	!	!	!	!	!	!	!
.	.	.	.	.	.	.	24aa\LL	.	.	.	.	.	.	.	.	.	.	.	.	.	.	.	.	.	.	.	.	.	.	.	.	.	.	.
.	.	.	.	.	.	.	24bb-\	.	.	.	.	.	.	.	.	.	.	.	.	.	.	.	.	.	.	.	.	.	.	.	.	.	.	.
.	.	.	.	.	.	.	24een\JJ	.	.	.	.	.	.	.	.	.	.	.	.	.	.	.	.	.	.	.	.	.	.	.	.	.	.	.
4r	.	.	4r	.	4r	.	16ff\LL	.	.	.	.	.	.	.	.	.	.	.	.	.	.	.	.	.	.	.	4r	.	4r	.	4r	.	4r	.
.	.	.	.	.	.	.	16dd-X\	.	.	.	.	.	.	.	.	.	.	.	.	.	.	.	.	.	.	.	.	.	.	.	.	.	.	.
.	.	.	.	.	.	.	16ddn\)	.	.	.	.	.	.	.	.	.	.	.	.	.	.	.	.	.	.	.	.	.	.	.	.	.	.	.
.	.	.	.	.	.	.	16b-\JJ	.	.	.	.	.	.	.	.	.	.	.	.	.	.	.	.	.	.	.	.	.	.	.	.	.	.	.
!LO:LB:g=original	!	!	!	!	!	!	!	!	!	!	!	!	!	!	!	!	!	!	!	!	!	!	!	!	!	!	!	!	!LO:LB:g=original	!	!	!	!	!
=21	=21	=21	=21	=21	=21	=21	=21	=21	=21	=21	=21	=21	=21	=21	=21	=21	=21	=21	=21	=21	=21	=21	=21	=21	=21	=21	=21	=21	=21	=21	=21	=21	=21	=21
!	!	!	!	!	!	!	!	!	!	!	!	!LO:TX:a:t=2	!	!	!LO:TX:a:t=2	!	!	!LO:TX:a:t=1	!	!	!	!	!	!	!	!	!	!	!	!	!	!	!	!
*	*	*	*	*	*	*	*	*	*	*	*	*	*	*	*	*	*	*	*	*	*	*	*	*	*	*	*	*	*	*	*	*	*	*
!	!	!	!	!	!	!	!	!	!	!	!	!	!	!	!	!	!	!	!	!	!LO:TX:b:t=Solo	!	!LO:TX:a:t=Solo	!	!LO:TX:a:t=Solo	!	!	!	!	!	!	!	!	!
4F\	.	.	4f\	.	4f/	rf	4cc\	.	1r	.	.	1r	.	.	1r	.	.	1r	.	.	8r	.	8r	.	8r	.	4F\	.	4f'/	.	4ff\	p	4ccc\	.
.	.	.	.	.	.	.	.	.	.	.	.	.	.	.	.	.	.	.	.	.	16FF/LL	.	16f/LL	.	16ff\LL	.	.	.	.	.	.	.	.	.
.	.	.	.	.	.	.	.	.	.	.	.	.	.	.	.	.	.	.	.	.	16FF/JJ	.	16f/JJ	.	16ff\JJ	.	.	.	.	.	.	.	.	.
4FF/	.	.	4F/	.	4A/ 4f	.	4ff\	.	.	.	.	.	.	.	.	.	.	.	.	.	8FF/L	.	8f/L	.	8ff\L	.	4F\	.	8f'/L	.	8ff\L	.	8fff\L	.
.	.	.	.	.	.	.	.	.	.	.	.	.	.	.	.	.	.	.	.	.	8FF/J	.	8f/J	.	8ff\J	.	.	.	8f'/J	.	8ff\J	.	8fff\J	.
*	*	*	*	*	*	*	*	*	*	*	*	*	*	*	*	*	*	*	*	*	*	*	*	*	*	*	*	*	*tremolo	*	*	*	*	*
*	*	*	*	*	*	*	*	*	*	*	*	*	*	*	*	*	*	*	*	*	*	*	*	*	*	*	*	*	*	*	*tremolo	*	*	*
*	*	*	*	*	*	*	*	*	*	*	*	*	*	*	*	*	*	*	*	*	*tremolo	*	*tremolo	*	*tremolo	*	*	*	*	*	*	*	*tremolo	*
!	!	!	!	!	!	!	!	!	!	!	!	!	!	!	!	!	!	!	!	!	!	!	!	!	!LO:TX:t=P:problem=poczwórne staccato	!	!	!	!LO:TX:t=P:problem=poczwórne staccato	!	!LO:TX:t=P:problem=poczwórne staccato	!	!LO:TX:t=P:problem=poczwórne staccato	!
2r	.	.	2r	.	2r	.	2r	.	.	.	.	.	.	.	.	.	.	.	.	.	8FF/L	.	8f/L	.	8ff'\L	.	2r	.	8f'/L	.	8ff'\L	.	8fff'\L	.
.	.	.	.	.	.	.	.	.	.	.	.	.	.	.	.	.	.	.	.	.	8FF/	.	8f/	.	8ff'\	.	.	.	8f'/	.	8ff'\	.	8fff'\	.
.	.	.	.	.	.	.	.	.	.	.	.	.	.	.	.	.	.	.	.	.	8FF/	.	8f/	.	8ff'\	.	.	.	8f'/	.	8ff'\	.	8fff'\	.
.	.	.	.	.	.	.	.	.	.	.	.	.	.	.	.	.	.	.	.	.	8FF/J	.	8f/J	.	8ff'\J	.	.	.	8f'/J	.	8ff'\J	.	8fff'\J	.
*	*	*	*	*	*	*	*	*	*	*	*	*	*	*	*	*	*	*	*	*	*	*	*	*	*	*	*	*	*	*	*	*	*Xtremolo	*
*	*	*	*	*	*	*	*	*	*	*	*	*	*	*	*	*	*	*	*	*	*	*	*	*	*	*	*	*	*	*	*Xtremolo	*	*	*
*	*	*	*	*	*	*	*	*	*	*	*	*	*	*	*	*	*	*	*	*	*	*	*	*	*	*	*	*	*Xtremolo	*	*	*	*	*
*	*	*	*	*	*	*	*	*	*	*	*	*	*	*	*	*	*	*	*	*	*	*	*	*	*Xtremolo	*	*	*	*	*	*	*	*	*
*	*	*	*	*	*	*	*	*	*	*	*	*	*	*	*	*	*	*	*	*	*	*	*Xtremolo	*	*	*	*	*	*	*	*	*	*	*
*	*	*	*	*	*	*	*	*	*	*	*	*	*	*	*	*	*	*	*	*	*Xtremolo	*	*	*	*	*	*	*	*	*	*	*	*	*
!	!	!	!	!	!	!	!	!	!	!	!	!	!	!	!	!	!	!LO:TX:t=*Vi	!	!	!	!	!	!	!	!	!	!	!	!	!	!	!	!
=22	=22	=22	=22	=22	=22	=22	=22	=22	=22	=22	=22	=22	=22	=22	=22	=22	=22	=22	=22	=22	=22	=22	=22	=22	=22	=22	=22	=22	=22	=22	=22	=22	=22	=22
*	*	*	*	*	*	*	*	*	*	*	*	*	*	*	*	*	*	*	*	*	*	*	*	*	*	*	*	*	*	*	*	*	*	*
!	!	!	!	!	!	!	!	!	!	!	!	!	!	!	!	!	!	!LO:TX:t=De*	!	!	!	!	!	!	!	!	!	!	!	!	!	!	!	!
4B-\	.	.	4B-/	.	(8B-/L	p	(8d/L	.	1r	.	.	1r	.	.	1r	.	.	2.f/	o-	.	4FF/	.	4f/	.	4ff\	.	4BB-/	p	2f/	.	2ff\	.	2fff\	.
.	.	.	.	.	8d/)	.	8f/)	.	.	.	.	.	.	.	.	.	.	.	.	.	.	.	.	.	.	.	.	.	.	.	.	.	.	.
4r	.	.	4r	.	8d'/	.	8f'/	.	.	.	.	.	.	.	.	.	.	.	.	.	4r	.	4r	.	4r	.	4r	.	.	.	.	.	.	.
.	.	.	.	.	8d'/J	.	8f'/J	.	.	.	.	.	.	.	.	.	.	.	.	.	.	.	.	.	.	.	.	.	.	.	.	.	.	.
!	!	!	!	!	!	!	!	!	!	!	!	!	!	!	!	!	!	!	!	!	!	!	!	!	!	!	!	!	!	!	!	!	!	!
*	*	*	*	*	*	*	*rep	*	*	*	*	*	*	*	*	*	*	*	*	*	*	*	*	*	*	*	*	*	*	*	*	*	*	*
4BB-/	.	.	4b-\	.	(8B-/L	.	(8d/L	.	.	.	.	.	.	.	.	.	.	.	.	.	2r	.	2r	.	2r	.	4B-\	.	2r	.	2r	.	2r	.
.	.	.	.	.	8d/)	.	8f/)	.	.	.	.	.	.	.	.	.	.	.	.	.	.	.	.	.	.	.	.	.	.	.	.	.	.	.
!	!	!	!LO:TX:t=P:problem=brak pauzy 4	!	!	!	!	!	!	!	!	!	!	!	!	!	!	!	!	!	!	!	!	!	!	!	!	!	!	!	!	!	!	!
4r	.	.	4ryy	.	8d'/	.	8f'/	.	.	.	.	.	.	.	.	.	.	8.dd\L	.	.	.	.	.	.	.	.	4r	.	.	.	.	.	.	.
.	.	.	.	.	8d'/J	.	8f'/J	.	.	.	.	.	.	.	.	.	.	.	.	.	.	.	.	.	.	.	.	.	.	.	.	.	.	.
*	*	*	*	*	*	*	*Xrep	*	*	*	*	*	*	*	*	*	*	*	*	*	*	*	*	*	*	*	*	*	*	*	*	*	*	*
.	.	.	.	.	.	.	.	.	.	.	.	.	.	.	.	.	.	16b-\Jk	.	.	.	.	.	.	.	.	.	.	.	.	.	.	.	.
!	!	!	!	!	!	!	!	!	!	!	!	!	!	!	!LO:LB:g=original	!	!	!	!	!	!	!	!	!	!	!	!	!	!	!	!	!	!LO:LB:g=original	!
=23	=23	=23	=23	=23	=23||:	=23	=23	=23	=23	=23	=23	=23	=23	=23	=23	=23	=23	=23	=23	=23	=23	=23	=23	=23	=23	=23	=23	=23	=23	=23	=23	=23	=23	=23
!	!	!	!	!	!	!	!	!	!	!	!	!	!	!	!	!	!	!	!	!	!LO:TX:a:t=6	!	!LO:TX:a:t=6	!	!LO:TX:a:t=6	!	!	!	!LO:TX:a:t=3	!	!	!	!	!
4F\	7 5	.	4f\	.	(8c/L	.	(8e-/L	.	4r	.	.	4r	.	.	4r	.	.	8.ee-\L	-san-	.	1r	.	1r	.	1r	.	4F\	.	1r	.	4r	.	4r	.
.	.	.	.	.	8e-/)	.	8f/)	.	.	.	.	.	.	.	.	.	.	.	.	.	.	.	.	.	.	.	.	.	.	.	.	.	.	.
.	.	.	.	.	.	.	.	.	.	.	.	.	.	.	.	.	.	16cc\Jk	.	.	.	.	.	.	.	.	.	.	.	.	.	.	.	.
4r	.	.	4r	.	8e-'/	.	8f/	.	8r	.	p	8r	.	.	8r	.	.	4a\	-na	.	.	.	.	.	.	.	4r	.	.	.	8r	.	8r	.
.	.	.	.	.	8e-'/J	.	8f/J	.	8E-\	O-	.	8f\	O-	p	8cc\	O-	.	.	.	.	.	.	.	.	.	.	.	.	.	.	8f/	.	8ff\	.
4F\	.	.	4F/	.	(8c/L	.	(8e-/L	.	8E-\	-san-	.	8f\	-san-	.	8cc\	-san-	.	2r	.	.	.	.	.	.	.	.	4f\	.	.	.	8eX/L	.	(8een\L	.
.	.	.	.	.	8e-/)	.	8f/)	.	8E-\	-na	.	8f\	-na	.	8cc\	-na	.	.	.	.	.	.	.	.	.	.	.	.	.	.	8f/	.	8ff\	.
4r	.	.	4r	.	8e-'/	.	8f'/	.	8E-\	in	.	8f\	in	.	8cc\	in	.	.	.	.	.	.	.	.	.	.	4r	.	.	.	8a/	.	8aa\	.
.	.	.	.	.	8e-'/J	.	8f'/J	.	8E-\	ex-	.	8f\	ex-	.	8cc\	ex-	.	.	.	.	.	.	.	.	.	.	.	.	.	.	8cc/J	.	8ccc\J)	.
!	!	!	!	!	!	!	!	!	!LO:LB:g=original	!	!	!	!	!	!	!	!	!	!	!	!	!	!	!	!	!	!	!	!	!	!	!	!	!
=24	=24	=24	=24	=24	=24:||	=24	=24	=24	=24	=24	=24	=24	=24	=24	=24	=24	=24	=24	=24	=24	=24	=24	=24	=24	=24	=24	=24	=24	=24	=24	=24	=24	=24	=24
*	*	*	*	*	*	*	*rep	*	*	*	*	*	*	*	*	*	*	*	*	*	*	*	*	*	*	*	*	*	*	*	*	*	*	*
4F\	.	.	4f\	.	1ryy	.	(8e-/L	.	4E-\	-cel-	.	4f\	-cel-	.	4cc\	-cel-	.	2.f/	o-	.	1r	.	1r	.	1r	.	4F\	.	1r	.	4ee-\	.	2eee-\	.
.	.	.	.	.	.	.	8f/)	.	.	.	.	.	.	.	.	.	.	.	.	.	.	.	.	.	.	.	.	.	.	.	.	.	.	.
4r	.	.	4r	.	.	.	8f/	.	4E-\	-sis	.	4f\	-sis	.	4cc\	-sis	.	.	.	.	.	.	.	.	.	.	4r	.	.	.	4r	.	.	.
.	.	.	.	.	.	.	8f/J	.	.	.	.	.	.	.	.	.	.	.	.	.	.	.	.	.	.	.	.	.	.	.	.	.	.	.
*	*	*	*	*	*	*	*rep	*	*	*	*	*	*	*	*	*	*	*	*	*	*	*	*	*	*	*	*	*	*	*	*	*	*	*
4F\	.	.	4F/	.	.	.	(8e-/L	.	2r	.	.	2r	.	.	2r	.	.	.	.	.	.	.	.	.	.	.	4F\	.	.	.	2r	.	2r	.
.	.	.	.	.	.	.	8f/)	.	.	.	.	.	.	.	.	.	.	.	.	.	.	.	.	.	.	.	.	.	.	.	.	.	.	.
4r	.	.	4r	.	.	.	8f'/	.	.	.	.	.	.	.	.	.	.	8.ee-\L	.	.	.	.	.	.	.	.	4r	.	.	.	.	.	.	.
.	.	.	.	.	.	.	8f'/J	.	.	.	.	.	.	.	.	.	.	.	.	.	.	.	.	.	.	.	.	.	.	.	.	.	.	.
.	.	.	.	.	.	.	.	.	.	.	.	.	.	.	.	.	.	16cc\Jk	.	.	.	.	.	.	.	.	.	.	.	.	.	.	.	.
*	*	*	*	*	*	*	*Xrep	*	*	*	*	*	*	*	*	*	*	*	*	*	*	*	*	*	*	*	*	*	*	*	*	*	*	*
!	!	!	!	!	!LO:LB:g=original	!	!LO:LB:g=original	!	!	!	!	!	!	!	!	!	!	!	!	!	!	!	!	!	!	!	!	!	!	!	!	!	!	!
=25	=25	=25	=25	=25	=25	=25	=25	=25	=25	=25	=25	=25	=25	=25	=25	=25	=25	=25	=25	=25	=25	=25	=25	=25	=25	=25	=25	=25	=25	=25	=25	=25	=25	=25
4B-\	.	.	4B-/	.	(8B-/L	.	(8d/L	.	4r	.	.	4r	.	.	4r	.	.	8.ff\L	-san-	.	1r	.	1r	.	1r	.	4BB-/	.	1r	.	4r	.	4r	.
.	.	.	.	.	8d/)	.	8f/)	.	.	.	.	.	.	.	.	.	.	.	.	.	.	.	.	.	.	.	.	.	.	.	.	.	.	.
.	.	.	.	.	.	.	.	.	.	.	.	.	.	.	.	.	.	16dd\Jk	.	.	.	.	.	.	.	.	.	.	.	.	.	.	.	.
4r	.	.	4r	.	8d'/	.	8f'/	.	8r	.	.	8r	.	.	8r	.	.	4b-\	-na	.	.	.	.	.	.	.	4r	.	.	.	8r	.	8r	.
.	.	.	.	.	8d'/J	.	8f'/J	.	8D\	o-	.	8f\	O-	.	8dd\	O-	.	.	.	.	.	.	.	.	.	.	.	.	.	.	8f/	.	8ff\	.
*	*	*	*	*	*rep	*	*	*	*	*	*	*	*	*	*	*	*	*	*	*	*	*	*	*	*	*	*	*	*	*	*	*	*	*
4BB-/	.	.	4b-\	.	(8B-/L	.	8d/L	.	8D\	-san-	.	8f\	-san-	.	8dd\	-san-	.	2r	.	.	.	.	.	.	.	.	4B-\	.	.	.	8eX\L	.	(8een\L	.
.	.	.	.	.	8d/)	.	8f/	.	8D\	-na	.	8f\	-na	.	8dd\	-na	.	.	.	.	.	.	.	.	.	.	.	.	.	.	8f\	.	8ff\	.
4r	.	.	4r	.	8d'/	.	8b-/	.	8D\	in	.	8f\	in	.	8dd\	in	.	.	.	.	.	.	.	.	.	.	4r	.	.	.	8b-\	.	8bb-\	.
.	.	.	.	.	8d'/J	.	8dd/J	.	8D\	ex-	.	8f\	ex-	.	8dd\	ex-	.	.	.	.	.	.	.	.	.	.	.	.	.	.	8dd\J	.	8ddd\J)	.
*	*	*	*	*	*Xrep	*	*	*	*	*	*	*	*	*	*	*	*	*	*	*	*	*	*	*	*	*	*	*	*	*	*	*	*	*
!	!	!	!LO:LB:g=original	!	!	!	!	!	!	!	!	!	!	!	!	!	!	!	!	!	!	!	!	!	!	!	!	!	!	!	!	!	!	!
!	!	!	!	!	!	!	!	!	!	!	!	!	!	!	!	!	!	!	!	!	!	!	!	!	!	!	!LO:LB:g=original	!	!	!	!	!	!	!
=26	=26	=26	=26	=26	=26	=26	=26	=26	=26	=26	=26	=26	=26	=26	=26	=26	=26	=26	=26	=26	=26	=26	=26	=26	=26	=26	=26	=26	=26	=26	=26	=26	=26	=26
!	!	!	!	!	!	!	!	!	!	!	!	!	!	!	!	!	!	!LO:TX:a:t=1	!	!	!	!	!	!	!	!	!	!	!	!	!	!	!	!
*	*	*	*	*	*	*	*	*	*	*	*	*	*	*	*	*	*	*	*	*	*	*	*	*	*	*	*	*	*	*	*	*	*	*
!	!	!	!	!	!	!	!	!LO:DY:b	!	!	!	!	!	!	!	!	!	!	!	!	!	!	!	!	!	!	!	!	!	!	!	!	!	!
4BB-/	.	.	2B-/	.	2d/	f	2ffT\	f	4D\	-cel-	.	4f\	-cel-	.	4dd\	-cel-	.	1r	.	.	1r	.	1r	.	1r	.	2BB-/	.	2dd\	.	2ff\	.	2fff\	.
4r	.	.	.	.	.	.	.	.	4D\	-sis	.	4f\	-sis	.	4dd\	-sis	.	.	.	.	.	.	.	.	.	.	.	.	.	.	.	.	.	.
2r	.	.	4d\	.	8.b-/L	.	8.ddd\L	.	2r	.	.	2r	.	.	2r	.	.	.	.	.	.	.	.	.	.	.	4D/	.	2r	.	2r	.	2r	.
.	.	.	.	.	16a/K	.	16ccc\K	.	.	.	.	.	.	.	.	.	.	.	.	.	.	.	.	.	.	.	.	.	.	.	.	.	.	.
.	.	.	4d\	.	8.g/	.	8.bb-\	.	.	.	.	.	.	.	.	.	.	.	.	.	.	.	.	.	.	.	4D/	.	.	.	.	.	.	.
.	.	.	.	.	16f/Jk	.	16aa\Jk	.	.	.	.	.	.	.	.	.	.	.	.	.	.	.	.	.	.	.	.	.	.	.	.	.	.	.
!	!	!	!	!	!	!	!	!	!	!	!	!	!	!	!	!	!	!LO:TX:a:t=*Re	!	!	!	!	!	!	!	!	!	!	!	!	!	!	!	!
!	!	!	!	!	!	!	!	!	!	!	!	!	!	!	!	!	!	!LO:LB:g=original	!	!	!	!	!	!	!	!	!	!	!	!	!LO:LB:g=original	!	!	!
=27	=27	=27	=27	=27	=27	=27	=27	=27	=27	=27	=27	=27	=27	=27	=27	=27	=27	=27	=27	=27	=27	=27	=27	=27	=27	=27	=27	=27	=27	=27	=27	=27	=27	=27
!	!	!	!	!LO:DY:t=for	!	!	!	!	!	!	!	!	!	!	!	!	!	!LO:TX:a:t=Tur	!	!	!	!	!	!	!	!	!	!	!	!	!	!	!	!
8.e-\L	.	f	8.ee-\L	f	(8.e-/L	.	8.gg\L	.	1r	.	.	(8.e-\L	O-	f	1r	.	.	(8.gg\L	O-	.	1r	.	1r	.	1r	.	4E-\	.	8.ee-\L	.	8.gg\L	.	4r	.
16d\K	.	.	16dd\K	.	16d/K	.	16ff\K	.	.	.	.	16d\Jk)	.	.	.	.	.	16ff\Jk)	.	.	.	.	.	.	.	.	.	.	16dd\K	.	16ff\K	.	.	.
!	!	!	!	!	!	!	!	!	!	!	!	!	!	!	!	!	!	!	!	!	!	!	!	!	!	!	!	!	!	!	!	!	!LO:TX:b:t=Sotto	!
8.c\	.	.	8.cc\	.	8.c/	.	8.ee-\	.	.	.	.	8.c\	-san-	.	.	.	.	8.ee-\	-san-	.	.	.	.	.	.	.	4r	.	8.cc\	.	8.ee-\	.	8.eee-'\L	.
16B-\Jk	.	.	16b-\Jk	.	16B-/Jk)	.	16dd\Jk	.	.	.	.	16B-\	-na	.	.	.	.	16dd\	-na	.	.	.	.	.	.	.	.	.	16b-\Jk	.	16dd\Jk	.	16ddd'\Jk	.
8.A\L	.	.	8.a\L	.	(8.A/L	.	8.cc\L	.	.	.	.	8.A\	in	.	.	.	.	8.cc\	in	.	.	.	.	.	.	.	2r	.	8.a/L	.	8.cc\L	.	8.ccc'\L	.
16G\K	.	.	16g\K	.	16g/K	.	16b-\K	.	.	.	.	16G\	ex-	.	.	.	.	16b-\	ex-	.	.	.	.	.	.	.	.	.	16g/K	.	16b-\K	.	16bb-'\K	.
8.F\	.	.	8.f\	.	8.f/	.	8.a\	.	.	.	.	8.F/	-cel-	.	.	.	.	8.a\	-cel-	.	.	.	.	.	.	.	.	.	8.f/	.	8.a\	.	8.aa'\	.
16E-\Jk	.	.	16e-\Jk	.	16e-/Jk)	.	16g\Jk	.	.	.	.	16E-/	-sis	.	.	.	.	16g\	-sis	.	.	.	.	.	.	.	.	.	16e-/Jk	.	16g\Jk	.	16gg'\Jk	.
!LO:LB:g=original	!	!	!	!	!	!	!	!	!	!	!	!	!	!	!	!	!	!	!	!	!	!	!	!	!	!	!	!	!	!	!	!	!	!
=28	=28	=28	=28	=28	=28	=28	=28	=28	=28	=28	=28	=28	=28	=28	=28	=28	=28	=28	=28	=28	=28	=28	=28	=28	=28	=28	=28	=28	=28	=28	=28	=28	=28	=28
2D\	.	.	2d\	.	2d/	.	2f/	.	2r	.	.	2D/	O-	.	2r	.	.	2f/	o-	.	1r	.	1r	.	1r	.	2r	.	2d/	.	2f/	.	2ff\	.
4F#X\	5 3	.	4f#X\	.	4ff#X\	.	4cc\ 4aa	.	4E-\	O-	.	4f#X\	-san-	.	4cc\	in	.	4aa\	-san-	.	.	.	.	.	.	.	4F#X\	.	4dd\	.	4ff#X\	.	4gg-X\	.
4F#\	.	.	4f#\	.	4ff#\	.	4cc\ 4aa	.	4E-\	-san-	.	4f#\	-na	.	4cc\	ex-	.	4aa\	-na	.	.	.	.	.	.	.	4F#\	.	4dd\	.	4ff#\	.	4gg-\	.
!	!	!	!	!	!	!	!	!	!LO:LB:g=original	!	!	!LO:LB:g=original	!	!	!	!	!	!	!	!	!	!	!	!	!	!	!	!	!	!	!	!	!	!
=29	=29	=29	=29	=29	=29	=29	=29	=29	=29	=29	=29	=29	=29	=29	=29	=29	=29	=29	=29	=29	=29	=29	=29	=29	=29	=29	=29	=29	=29	=29	=29	=29	=29	=29
4G\	3	.	4g\	.	4b-\ 4gg	.	4b-\ 4bb-	.	4D\	-na	.	4g\	in	.	4dd\	-cel-	.	4bb-^\	in	.	2r	.	2r	.	2r	.	4G\	.	4ee-\	.	4gg\	.	4ggn\	.
8.C\L	5_ 3_	.	8.c\L	.	4ee-\	.	4gg\	.	4E-\	in	.	4e-\	ex-	.	4cc\	.	.	4gg\	ex-	.	.	.	.	.	.	.	8.E-\L	.	4ee-\	.	4gg\	.	4eee-\	.
16E-\Jk	.	.	16e-\Jk	.	.	.	.	.	.	.	.	.	.	.	.	.	.	.	.	.	.	.	.	.	.	.	16En\Jk	.	.	.	.	.	.	.
!	!	!	!	!	!	!	!	!	!	!	!	!	!	!	!	!	!	!	!	!	!	!	!	!LO:DY:b:t=for	!	!LO:DY:b:t=for	!	!	!	!	!	!	!	!
4F\	6 4	.	4f\	.	4dd\	.	4dd\ 4ff	.	4F\	ex-	.	4d\	-cel-	.	4b-\	.	.	(4ff\	-cel-	.	8FF/L	.	8f/L	f	8cc\L	f	4F\	.	4dd\	.	4ff\	.	4ddd\	.
.	.	.	.	.	.	.	.	.	.	.	.	.	.	.	.	.	.	.	.	.	16FF/L	.	16f/L	.	16cc\L	.	.	.	.	.	.	.	.	.
.	.	.	.	.	.	.	.	.	.	.	.	.	.	.	.	.	.	.	.	.	16FF/JJ	.	16f/JJ	.	16cc\JJ	.	.	.	.	.	.	.	.	.
4FF/	5 3	.	4F/	.	4f/ 4a	.	4f/ 4a	.	4F\	-cel-	.	4e-\	.	.	4f\	.	.	4a\)	.	.	8FF/L	.	8f/L	.	8cc\L	.	4F\	.	4cc\	.	4aa\	.	4ccc\	.
.	.	.	.	.	.	.	.	.	.	.	.	.	.	.	.	.	.	.	.	.	8FF/J	.	8f/J	.	8cc\J	.	.	.	.	.	.	.	.	.
=30	=30	=30	=30	=30	=30	=30	=30	=30	=30	=30	=30	=30	=30	=30	=30	=30	=30	=30	=30	=30	=30	=30	=30	=30	=30	=30	=30	=30	=30	=30	=30	=30	=30	=30
4BB-/	.	.	4B-/	.	4d/ 4b-	.	4d/ 4b-	.	4B-\	-sis	.	4d\	-sis	.	4f\	-sis	.	4b-\	-sis	.	4BB-/	.	4d/	.	4b-\	.	4BB-/	.	4dd\	.	4bb-\	.	4bb-\	.
4r	.	.	4r	.	4r	.	4r	.	4r	.	.	4r	.	.	4r	.	.	4r	.	.	4r	.	4r	.	4r	.	4r	.	4r	.	4r	.	4r	.
2r	.	.	2r	.	2r	.	2r	.	2r	.	.	2r	.	.	2r	.	.	2r	.	.	2r	.	2r	.	2r	.	2r	.	2r	.	2r	.	2r	.
==	==	==	==	==	==	==	==	==	==	==	==	==	==	==	==	==	==	==	==	==	==	==	==	==	==	==	==	==	==	==	==	==	==	==
*-	*-	*-	*-	*-	*-	*-	*-	*-	*-	*-	*-	*-	*-	*-	*-	*-	*-	*-	*-	*-	*-	*-	*-	*-	*-	*-	*-	*-	*-	*-	*-	*-	*-	*-
!!!system-decoration: [(s1,s2,s3,s4)][(s5,s6)][(s7)][(s8,s9,s10,s11)][(s12,s13,s14)]s15
!!!RDF**kern: > = above
!!!RDF**kern: < = below
!!!ENC: Andrzej Gręziak
!!!END: 2020-08-02
!!!ENC: Natalia Wrzos
!!!END: 2022-02-21
!!!YEC: Copyright 2022 Narodowy Instytut Fryderyka Chopina (https://polishscores.org)
!!!YEM: License CC-BY-4.0 (https://creativecommons.org/licenses/by/4.0)
